X:50
T:Lei ci?ucle
O:France
A:Provence
C:Trad.
R:Danse de caract?re
S:Carnet du tambourinaire Ginas (1924)
Z:Transcrit et/ou corrig? par Michel BELLON - 2005-03-03
Z:Pour toute observation mailto:galouvielle@free.fr
M:2/4
L:1/8
K:Bb
V:Galoubet
F | B2c2 | d2zd | cBcd | ee ze | dfed | c2zF | B2c2 | d2zd | cBcd | ee zg | fe dc |B2z2::
f2f2  | f2zf | ed ef | gg zg | fe dc | d/c/d/e/ d2 | f2f2 | f2zf | ed ef | gg zg | fe dc |B2z2 :]
<end>
<start>
